X: 20005
T: Jim's Red Car
R: jig
M: 6/8
K: Gmajor
ged BAG|EGF GED|DEG BAG|dBG ABd|
ged BAG|EGD GED|DEG BdB|AFD G3:|
DEG Bcd|ege dBG|DEG BAG|dBG ~A2A|
DEG Bcd|ege dBG|DEG BdB|AFD G3||
DEG Bcd|ege dBG|DEG BAG|dBG ~A2A|
DEG Bcd|ege dB/c/d|~g2g agf|gba g3||

